X:1
T:Title
%%score { 1 | 2 }
L:1/8
Q:1/4=100
M:6/8
K:D
V:1 treble nm="Grand Piano"
V:2 bass 
V:1
 [FA]2 [DF] [Fd]2 [FA] | [GB]2 [Gd] [FA]3 | [FA]2 F D2 [DF] | [CE]6 | [CA]2 [EG] F2 d | c2 B A3 | %6
w: H.~N.~Whitney * * *||||||
 [DB]2 [B,DE] [A,DF]2[K:bass] [G,CE] | [F,D]6 |] %8
w: ||
V:2
 [D,A,]2 [D,A,] [D,A,]2 [D,A,] | [D,G,]2 [D,B,] [D,D]3 | [D,D]2 [D,A,D] [B,,B,]2 [B,,F,] | %3
 [A,,A,]6 | [A,,A,]2 [A,,A,] [D,A,D]2 [D,B,D] | [D,A,D]2 [D,G,D] [D,F,D]3 | %6
 [G,,G,]2 ^G,, A,,2 A,, | D,6 |] %8

